src/main/resources/img/expui/window/ExecutionConsole.svg

<svg width="16" height="16" version="1.1" viewBox="0 0 16 16"  xmlns="http://www.w3.org/2000/svg"><path d="m6.5 1c-1.9507-3.344e-5 -5.5 0.28974-5.5 2v8.9902c0 1.5127 3.125 2.0129 5.5 2.0098 0.16581-2.22e-4 0.33809-0.006253 0.50977-0.011719l-0.0019531-0.99805c-0.16695 0.005571-0.3353 0.009766-0.50781 0.009766-2.5 0-4.5-0.59962-4.5-1.0996v-1.7012s1 0.80469 4.5 0.80469c0.17563 0 0.34161-0.001692 0.50391-0.005859v-1.0078c-0.16569 0.0054862-0.33275 0.0097656-0.50391 0.0097656-2.5 0-4.5-0.59962-4.5-1.0996v-1.7051s1 0.80469 4.5 0.80469c0.17484 0 0.34044-0.0017249 0.50195-0.0058594a2.5002 2.5002 0 0 1 0.2168-1.0137c-0.23456 0.010914-0.47311 0.019531-0.71875 0.019531-2.5 0-4.5-0.59962-4.5-1.0996v-1.7051s1 0.80469 4.5 0.80469 4.5-0.80469 4.5-0.80469v1.7051c0 0.024367-0.006299 0.04946-0.015625 0.074219l1.0156 0.60938v-3.584c0-1.6-3.5492-2-5.5-2zm0 1c2.4853 0 4.5 0.4 4.5 1s-2.0147 1-4.5 1-4.5-0.4-4.5-1 2.0147-1 4.5-1z" fill="#6c707e"/><path d="m10.3 7.8c-0.8-0.4-1.3 0.2-1.3 0.8v4.9c0 0.59767 0.5 1.1 1.3 0.8l4.2-2.4c0.7-0.49484 0.7-1.2052 0-1.7zm-0.3 1 3.9 2.2469-3.9 2.2531z" fill="#62b543"/></svg>

<svg width="16" height="16" xmlns="http://www.w3.org/2000/svg"><path d="M6.5 1C4.55 1 1 1.29 1 3v8.99c0 1.513 3.125 2.013 5.5 2.01.166 0 .338-.006.51-.012l-.002-.998c-.167.006-.335.01-.508.01C4 13 2 12.4 2 11.9v-1.7s1 .804 4.5.804c.176 0 .342-.002.504-.006V9.99c-.166.006-.333.01-.504.01C4 10 2 9.4 2 8.9V7.195S3 8 6.5 8c.175 0 .34-.002.502-.006a2.5 2.5 0 0 1 .217-1.014c-.235.011-.473.02-.719.02C4 7 2 6.4 2 5.9V4.195S3 5 6.5 5s4.5-.805 4.5-.805V5.9c0 .025-.006.05-.016.075L12 6.584V3c0-1.6-3.55-2-5.5-2zm0 1c2.485 0 4.5.4 4.5 1S8.985 4 6.5 4 2 3.6 2 3s2.015-1 4.5-1zm3.26 5.672C9.282 7.7 9 8.15 9 8.6v4.9c0 .598.5 1.1 1.3.8l4.2-2.4c.7-.494.7-1.206 0-1.7l-4.2-2.4c-.2-.1-.38-.137-.54-.128zM10 8.8l3.9 2.246L10 13.3V8.8z" fill="#6c707e"/></svg>
